X:1
T: Aldialloch
C:
R:Strathspey
Q:128
K:D
M:4/4
L:1/16
|:AF3 F3E F3E FB3|AF3 F3D E3D EF3|AF3 ED3 d3e f3e|dcBA d3F E3D EF3|
AF3 F3E F3E FB3|AF3 F3D E3D EF3|AF3 ED3 d3e f3e|dcBA d3F E3D EF3|
A3B d3f e3f d4|A3B d3F E3D EF3|A3B d3f efgf e2f2|d3B d3F E3D EF3|
A3B d3f e3f d4|A3B d3F E3D EF3|A3B d3f efgf e2f2|d3B d3F E3D EF3:|
